!!!OTL-incipit: SO GEHT ES IN SCHNUETZELPUTZ HAEUSEL
!!!ARE: Europa, Mitteleuropa, Deutschland
!!!SCT: Z0122
!!!TXL: @@DE
!!!YEM: Copyright 1995, estate of Helmut Schaffrath.
**kern	**text
*ICvox	*
*M6/8	*
*k[b-]	*
!LO:TX:a:t=Von Nicolai handſchriftlich.	!
{8cc	So
=1	=1
8cc	geht
8b-	es
8a	in
8a	Schnütʒel-
8g	.
8a	-putʒ
=2	=2
(4b-/	Häu-
8a)	.
4g}	-ſel,
{8cc	da
=3	=3
8cc	ſin-
8b-	-gen
8a	und
8a	tan-
8g	-ʒen
8a	die
=4	=4
(4b-/	Mäu-
8a)	.
4g}	-ſel,
{8cc	und
=5	=5
8cc	bel-
8a	-len
8f	die
8dd	Schnecken
8b-	.
8g	im
=6	=6
4a	Häu-
8g	.
4f}	-ſel.
{8g	Jn
=7	=7
8g	Schnütʒel-
8a	.
8b/	-putʒ
8cc	Häuſel,
8dd	.
8ee	da
=8	=8
8dd	geht
8ee	es
8ff	ſehr
4ee}	toll,
{8g	da
=9	=9
8g	ſau-
8a	-fen
8b/	ſich
8cc	Ti-
8dd	-ſche
8ee	und
=10	=10
8dd	Bän-
8ee	.
8ff	-ke
4ee}	voll,
{8ee	Pan-
=11	=11
8ee	-tof-
8cc	.
8a	-feln
8ff	un-
8dd	-ter
8b	dem
=12	=12
4.a	Bet-
4.b/	.
=13	=13
4.cc	.
4cc}	-te.
{8cc	So
=14	=14
8cc	geht
8b-	es
8a	in
8a	Schnütʒel-
8g	.
8a	-putʒ
=15	=15
(4b-/	Häu-
8a)	.
4g}	-ſel,
{8cc	da
=16	=16
8cc	ſin-
8b-	-gen
8a	und
8a	tan-
8g	-ʒen
8a	die
=17	=17
(4b-/	Mäu-
8a)	.
4g}	-ſel,
{8cc	und
=18	=18
8cc	bel-
8a	-len
8f	die
8dd	Schnecken
8b-	.
8g	im
=19	=19
4a	Häu-
8g	.
4f}	-ſel.
==	==
!!!AGN: Erzaehlung, lustige Romanze, Unsinns - Verse
!!!ONB: ESAC (Essen Associative Code) Database: ZUCCAL
!!!AMT: compound duple
!!!AIN: vox
!!!EED: Helmut Schaffrath
!!!EEV: 1.0
!!!GTL: II. Erzahlungen, lustige Romanzen, Kinder-Lieder und episch-lyrische Volks-Lieder.
!!!URL-scan: https://www.digitale-sammlungen.de/de/view/bsb11160571?page=231
!!!ENC: Anna Maria Matuszewska
!!!EEV: 2025/01/27
*-	*-
